!!!!SEGMENT: pl-cz--iii-257--003_gotschalk-filip--requiem-in-b-dies-irae.krn
!!!cenid: 18xx:100
!!!COM: Gotschalk, Filip
!!!COM-rismID:
!!!CDT: 1760-1809
!!!CNT:
!!!OPR: Requiem in B
!!!OTL: Dies irae
!!!OMV: 003
!!!PDT:
!!!AGN: Sacred; Requiem
!!!SMS-siglum: PL-CZ
!!!SMS-shelfmark: III-257
!!!SMS-shelfwork: 001-003 M
!!!NIFC-rismSourceID:
!!!NIFC-islandoraID: pl-cz:36878
!!!URL-pdf-islandora: https://repozytorium.nifc.pl/islandora/object/pl-cz%3A36878/datastream/PDF/view
!!!URL-scan:
!!!ONB-nifc:
!!!OMD: Andante/Adagio
!!!AIN: 1 alto 1 bass 2 clars 2 empty 1 organ 1 tenor 2 violn 1 vox
!!!key:
**kern	**fba	**dynam	**kern	**dynam	**kern	**dynam	**kern	**text	**kern	**text	**kern	**text	**kern	**text	**kern	**kern	**kern	**kern
*part11	*	*part11	*part10	*part10	*part9	*part9	*part8	*part8	*part7	*part7	*part6	*part6	*part5	*part5	*part4	*part3	*part2	*part1
*staff11	*	*	*staff10	*	*staff9	*	*staff8	*staff8	*staff7	*staff7	*staff6	*staff6	*staff5	*staff5	*staff4	*staff3	*staff2	*staff1
*Iorgan	*	*	*Ivioln	*	*Ivioln	*	*Ibass	*	*Itenor	*	*Ialto	*	*Ivox	*	*Iempty	*Iempty	*Iclars	*Iclars
*I"Organo	*	*	*I"Violino Secondo	*	*I"Violino Primo	*	*I"Basso	*	*I"Tenore	*	*I"Alto	*	*I"Canto	*	*I"Cornu Secondo in B	*I"Cornu Primo in B	*I"Clarinetto Secondo	*I"Clarinetto Primo
*I'Org	*	*	*I'Vn II	*	*I'Vn I	*	*I'B	*	*I'T	*	*I'A	*	*I'C	*	*I'Cor II	*I'Cor I	*I'Cl II	*I'Cl I
*clefF4	*	*	*clefG2	*	*clefG2	*	*clefF4	*	*clefC4	*	*clefC3	*	*clefC1	*	*clefG2	*clefG2	*clefG2	*clefG2
*	*	*	*	*	*	*	*	*	*	*	*	*	*	*	*ITrd1c2	*ITrd1c2	*	*
*k[e-a-b-]	*	*	*k[b-e-a-]	*	*k[b-e-a-]	*	*k[b-e-b-]	*	*k[b-e-a-]	*	*k[b-e-]	*	*k[a-b-e-]	*	*k[b-e-]	*k[b-e-]	*k[e-b-a-]	*k[e-b-a-]
*E-:	*	*	*E-:	*	*E-:	*	*E-:	*	*E-:	*	*E-:	*	*E-:	*	*	*	*E-:	*E-:
*M4/4	*	*	*M4/4	*	*M4/4	*	*M4/4	*	*M4/4	*	*M4/4	*	*M4/4	*	*M4/4	*M4/4	*M4/4	*M4/4
*met(c)	*	*	*met(c)	*	*met(c)	*	*met(c)	*	*met(c)	*	*met(c)	*	*met(c)	*	*met(c)	*met(c)	*met(c)	*met(c)
=1	=1	=1	=1	=1	=1	=1	=1	=1	=1	=1	=1	=1	=1	=1	=1	=1	=1	=1
!LO:TX:a:t=Andante.	!	!	!LO:TX:t=Adagio.	!	!LO:TX:t=Adagio.	!	!LO:TX:a:t=Andante	!	!LO:PB:g=original	!	!LO:PB:g=original	!	!	!	!LO:TX:a:t=Andante	!LO:TX:a:t=Andante	!LO:TX:a:t=Andante	!LO:TX:a:t=Andante
!	!	!	!	!	!	!	!LO:SIC:o:v=kaudy w dół z prawej/lewej strony	!	!	!	!	!	!	!	!	!	!	!
!	!	!	!	!	!	!	!LO:SIC:o:v=znaki przy kluczu w innej kolejności	!	!	!	!	!	!	!	!	!	!	!
!LO:SIC:o:v=znaki przy kluczu w kolejności&colon; E-, BB-, A-	!	!	!	!	!	!	!LO:SIC:o:v= brak bemola AA-, zdwojony bemol B-	!	!	!	!	!	!	!	!	!	!	!LO:SIC:o:v=znaki przy kluczu w kolejności&colon; ee-, b-, a-
!LO:TX:a:t=Solo	!	!	!LO:SIC:o:v=znaki przy kluczu w kolejności&colon; ee-, b-, a-	!	!LO:SIC:o:v=znaki przy kluczu w kolejności&colon; b-, a-, ee-	!	!LO:TX:a:t=Solo	!	!LO:SIC:o:v=bemol E- przy kluczu oktawę niżej	!	!LO:SIC:o:v=znaki przy kluczu&colon; b-, e-, brak a-	!	!LO:SIC:o:v=znaki przy kluczu w kolejności&colon; a-,b-,ee-	!	!	!	!LO:SIC:o:v=znaki przy kluczu w kolejności&colon; ee-, b-, a-	!
*2\right	*	*	*	*	*	*	*8\right	*	*	*	*	*	*	*	*	*	*	*
*tremolo	*	*	*	*	*	*	*	*	*	*	*	*	*	*	*	*	*	*
!	!	!	!LO:SIC:v=p zpisane jako piano	!LO:DY:b	!LO:SIC:v=p jako pia	!LO:DY:b	!	!	!	!	!	!	!	!	!	!	!	!
8E-\L	.	p	16G/KL 16e-/	p	(<16g/LL	p	8.E-\	Di-	0r	.	0r	.	0r	.	00r	00r	0r	0r
.	.	.	8G/ 8e-/	.	16b-\)	.	.	.	.	.	.	.	.	.	.	.	.	.
8E-\	.	.	.	.	(<16g/	.	.	.	.	.	.	.	.	.	.	.	.	.
*	*	*	*	*	*	*	*16\right	*	*	*	*	*	*	*	*	*	*	*
.	.	.	8G/ 8e-/	.	16b-\JJ)	.	16E-\	-es	.	.	.	.	.	.	.	.	.	.
!	!	!	!	!	!	!	!LO:SIC:s:v=powinno być a-	!	!	!	!	!	!	!	!	!	!	!
.	.	.	.	.	.	.	8qqA/	.	.	.	.	.	.	.	.	.	.	.
8E-\	.	.	.	.	(<16g/LL	.	8G\	i-	.	.	.	.	.	.	.	.	.	.
.	.	.	8G/ 8e-/	.	16b-\	.	.	.	.	.	.	.	.	.	.	.	.	.
!	!	!	!	!	!	!	!	!	!LO:TX:t=3	!	!LO:TX:t=3	!	!LO:TX:t=3.	!	!LO:TX:t=7	!LO:TX:t=7	!	!LO:TX:t=3
.	.	.	.	.	.	.	8qqF/	.	.	.	.	.	.	.	.	.	.	.
8E-\J	.	.	.	.	16g/	.	8E-\	-rae	.	.	.	.	.	.	.	.	.	.
.	.	.	16G/Jk 16e-/	.	16b-\JJ)	.	.	.	.	.	.	.	.	.	.	.	.	.
8B-\L	.	.	16B-/KL 16d/	.	(<16f/LL	.	8.D\	Di-	.	.	.	.	.	.	.	.	.	.
.	.	.	8B-/ 8d/	.	16b-\	.	.	.	.	.	.	.	.	.	.	.	.	.
8B-\	.	.	.	.	16f/	.	.	.	.	.	.	.	.	.	.	.	.	.
.	.	.	8B-/ 8d/	.	16b-\JJ)	.	16E-\	-es	.	.	.	.	.	.	.	.	.	.
8B-\	.	.	.	.	(<16f/LL	.	8F\	il-	.	.	.	.	.	.	.	.	.	.
.	.	.	8B-/ 8d/	.	16b-\	.	.	.	.	.	.	.	.	.	.	.	.	.
8B-\J	.	.	.	.	16f/	.	8BB-/	-la	.	.	.	.	.	.	.	.	.	.
.	.	.	16B-/Jk 16d/	.	16b-\JJ)	.	.	.	.	.	.	.	.	.	.	.	.	.
=2	=2	=2	=2	=2	=2	=2	=2	=2	=2	=2	=2	=2	=2	=2	=2	=2	=2	=2
8DL/	6	.	16B-/KL 16d/	.	(<16f/LL	.	8F\	sol-	.	.	.	.	.	.	.	.	.	.
.	.	.	8B-/ 8d/	.	16b-\	.	.	.	.	.	.	.	.	.	.	.	.	.
*8\right	*	*	*	*	*	*	*	*	*	*	*	*	*	*	*	*	*	*
!LO:TX:t=P:problem=mixed beam	!	!	!	!	!	!	!	!	!	!	!	!	!	!	!	!	!	!
8B-J\	.	.	.	.	16f/	.	8F\	-vet	.	.	.	.	.	.	.	.	.	.
.	.	.	8B-/ 8d/	.	16b-\JJ)	.	.	.	.	.	.	.	.	.	.	.	.	.
8DL/	6	.	.	.	(<16f/LL	.	16B-\LL	sae-	.	.	.	.	.	.	.	.	.	.
!	!	!	!	!	!	!	!LO:SIC:s:v=powinno być a-	!	!	!	!	!	!	!	!	!	!	!
.	.	.	8B-/ 8d/	.	16b-\	.	16A\JJ	.	.	.	.	.	.	.	.	.	.	.
!LO:TX:t=P:problem=mixed beam	!	!	!	!	!	!	!	!	!	!	!	!	!	!	!	!	!	!
8B-J\	.	.	.	.	16f/	.	16G\LL	-clum	.	.	.	.	.	.	.	.	.	.
.	.	.	16B-/Jk 16d/	.	16b-\JJ)	.	16F\JJ	.	.	.	.	.	.	.	.	.	.	.
!LO:SIC:o:v=kaudy w dół z prawej/lewej strony	!	!	!	!	!	!	!	!	!	!	!	!	!	!	!	!	!	!
!	!	!	!	!	!LO:PB:g=original	!	!LO:PB:g=original	!	!	!	!	!	!	!	!	!	!	!
8E-\L	.	.	16G/KL 16e-/	.	(<16g/LL	.	8.E-\	in	.	.	.	.	.	.	.	.	.	.
.	.	.	8G/ 8e-/	.	16b-\	.	.	.	.	.	.	.	.	.	.	.	.	.
8B-\J	.	.	.	.	16g/	.	.	.	.	.	.	.	.	.	.	.	.	.
.	.	.	8G/ 8e-/	.	16b-\JJ)	.	16F\	fa-	.	.	.	.	.	.	.	.	.	.
*Xtremolo	*	*	*	*	*	*	*	*	*	*	*	*	*	*	*	*	*	*
8E-\L	.	.	.	.	(<16g/LL	.	8G\	-vil-	.	.	.	.	.	.	.	.	.	.
.	.	.	8G/ 8e-/	.	16b-\	.	.	.	.	.	.	.	.	.	.	.	.	.
8E-\J	.	.	.	.	16g/	.	8E-\	-la	.	.	.	.	.	.	.	.	.	.
.	.	.	16G/Jk 16e-/	.	16b-\JJ)	.	.	.	.	.	.	.	.	.	.	.	.	.
=3	=3	=3	=3	=3	=3	=3	=3	=3	=3	=3	=3	=3	=3	=3	=3	=3	=3	=3
!	!	!	!LO:PB:g=original	!	!LO:SIC:o:v=kaudy w dół z prawej/lewej strony	!	!	!	!	!	!	!	!	!	!	!	!	!
*	*	*	*	*	*16\right	*	*	*	*	*	*	*	*	*	*	*	*	*
8E-\L	6 4	.	8a-/L	.	(>16cc\LL	.	8c\	sol-	1r	.	1r	.	1r	.	.	.	1r	1r
.	.	.	.	.	16ee-\	.	.	.	.	.	.	.	.	.	.	.	.	.
8E-\	5 3	.	8g/	.	16b-\	.	8B-\	-vet	.	.	.	.	.	.	.	.	.	.
.	.	.	.	.	16ee-\JJ)	.	.	.	.	.	.	.	.	.	.	.	.	.
!	!	!	!	!	!	!	!LO:SIC:s:v=powinno być a-	!	!	!	!	!	!	!	!	!	!	!
8D\	6 5	.	8f/	.	(>16a-/LL	.	8A\	sae-	.	.	.	.	.	.	.	.	.	.
.	.	.	.	.	16ee-\	.	.	.	.	.	.	.	.	.	.	.	.	.
8E-\J	.	.	8e-/J	.	16g/	.	8G\	-clum	.	.	.	.	.	.	.	.	.	.
.	.	.	.	.	16ee-\JJ)	.	.	.	.	.	.	.	.	.	.	.	.	.
8A-\L	6	.	(<16d/LL	.	(<16f/LL	.	16F\LL	in	.	.	.	.	.	.	.	.	.	.
.	.	.	16c/)	.	16e-/	.	16E-\JJ	.	.	.	.	.	.	.	.	.	.	.
8An\J	5	.	(<16B-/	.	16d/	.	16D\LL	fa-	.	.	.	.	.	.	.	.	.	.
.	.	.	16c/JJ)	.	16e-/JJ)	.	16E-\JJ	.	.	.	.	.	.	.	.	.	.	.
8B-L\	.	.	8B-/L 8d/	.	16f/LL	.	8F\	-vil-	.	.	.	.	.	.	.	.	.	.
.	.	.	.	.	16g/J	.	.	.	.	.	.	.	.	.	.	.	.	.
!LO:TX:t=P:problem=mixed beam	!	!	!	!	!	!	!	!	!	!	!	!	!	!	!	!	!	!
8BB-J/	.	.	8B-/J 8d/	.	8f/J	.	8F\	-la	.	.	.	.	.	.	.	.	.	.
=4	=4	=4	=4	=4	=4	=4	=4	=4	=4	=4	=4	=4	=4	=4	=4	=4	=4	=4
*tremolo	*	*	*tremolo	*	*	*	*	*	*	*	*8\right	*	*	*	*	*	*	*
!LO:TX:a:t=Tutti	!	!	!LO:SIC:v=f zapisane jak for	!LO:DY:b	!	!LO:DY:b	!LO:TX:a:t=Tutti	!	!	!	!LO:SIC:o:v=kaudy w dół z prawej/lewej strony	!	!	!	!	!	!	!
8E-\L	.	.	8B-/L 8e-/	f	(<16g/LL	f	8.E-\	Di-	8E-/	Di-	8e-\	Di-	8e-/	Di-	.	.	8e-/L	8ee-\L
.	.	.	.	.	16b-\	.	.	.	.	.	.	.	.	.	.	.	.	.
!	!	!	!	!	!	!	!	!	!	!	!LO:SIC:v=niejednoznazna wysokość dźwięku	!	!	!	!	!	!	!
8E-\	.	.	8B-/ 8e-/	.	16g/	.	.	.	8E-/	-es	8e-\	-es	8e-/	-es	.	.	8e-/J	8ee-\J
.	.	.	.	.	16b-\JJ)	.	16E-\	-es	.	.	.	.	.	.	.	.	.	.
!	!	!	!	!	!LO:SIC:o:v=powtórka oznaczona skrótem //	!	!	!	!	!	!	!	!	!	!	!	!	!
!	!	!	!	!	!	!	!LO:SIC:s:v=powinno być a-	!	!	!	!	!	!	!	!	!	!	!
.	.	.	.	.	.	.	8qqA/	.	.	.	.	.	.	.	.	.	.	.
*	*	*	*	*	*rep	*	*	*	*	*	*	*	*	*	*	*	*	*
8E-\	.	.	8B-/ 8e-/	.	(<16g/LL	.	8G\	i-	8G/	i-	8g\	i-	8.g/	i-	.	.	8.g/L	8.gg\L
.	.	.	.	.	16b-\	.	.	.	.	.	.	.	.	.	.	.	.	.
.	.	.	.	.	.	.	8qqF/	.	.	.	.	.	.	.	.	.	.	.
8E-\J	.	.	8B-/J 8e-/	.	16g/	.	8E-\	-rae	8E-/	-rae	8e-\	-rae	.	.	.	.	.	.
.	.	.	.	.	16b-\JJ)	.	.	.	.	.	.	.	16e-/	-rae	.	.	16e-/Jk	16ee-\Jk
*	*	*	*	*	*Xrep	*	*	*	*	*	*	*	*8\right	*	*	*	*	*
!	!	!	!	!	!	!	!	!	!	!	!	!	!LO:SIC:o:v=kaudy w dół z prawej/lewej strony	!	!	!	!	!
!	!	!	!	!	!	!	!LO:PB:g=original	!	!	!	!	!	!	!	!	!	!	!
8B-\L	.	.	8B-/L 8d/	.	(<16f/LL	.	8.D/	Di-	8D/	di-	8.d\	Di-	8.dd\	Di-	.	.	8.d/L	8dd\L
.	.	.	.	.	16b-\	.	.	.	.	.	.	.	.	.	.	.	.	.
8B-\	.	.	8B-/ 8d/	.	16f/	.	.	.	8E-/	-es	.	.	.	.	.	.	.	8ee-\
*	*	*	*	*	*	*	*	*	*	*	*16\right	*	*16\right	*	*	*	*	*
!	!	!	!	!	!	!	!	!	!	!	!LO:N:vis=8	!	!	!	!	!	!	!
.	.	.	.	.	16b-\JJ)	.	16E-/	-es	.	.	16e-\	-es	16ee-\	-es	.	.	16e-/	.
!	!	!	!	!	!LO:SIC:o:v=powtórka oznaczona skrótem //	!	!	!	!	!	!	!	!	!	!	!	!	!
*	*	*	*	*	*rep	*	*	*	*	*	*	*	*	*	*	*	*	*
8B-\	.	.	8B-/ 8d/	.	(<16f/LL	.	8F\	il-	8F/	il-	8f\	il-	8ff\	il-	.	.	8f/	8ff\
.	.	.	.	.	16b-\	.	.	.	.	.	.	.	.	.	.	.	.	.
8B-\J	.	.	8B-/J 8d/	.	16f/	.	8BB-/	-la	8BB-/	-la	8B-/	-la	8b-\	-la	.	.	8b-\J	8b-\J
.	.	.	.	.	16b-\JJ)	.	.	.	.	.	.	.	.	.	.	.	.	.
*Xtremolo	*	*	*	*	*Xrep	*	*	*	*	*	*	*	*	*	*	*	*	*
=5	=5	=5	=5	=5	=5	=5	=5	=5	=5	=5	=5	=5	=5	=5	=5	=5	=5	=5
!LO:PB:g=original	!	!	!	!	!LO:PB:g=original	!	!	!	!	!	!LO:PB:g=original	!	!LO:PB:g=original	!	!	!	!	!
8D\L	6	.	8B-/L 8d/	.	(<16a-/LL	.	8F\	sol-	8F/	sol-	8f\	sol-	8f/	sol-	0r	0r	8f/L	8ff\L
.	.	.	.	.	16b-\	.	.	.	.	.	.	.	.	.	.	.	.	.
8B-\	.	.	8B-/ 8d/	.	16a-/	.	8F\	-vet	8F/	-vet	8f\	-vet	8f/	-vet	.	.	8f/J	8ff\J
.	.	.	.	.	16b-\JJ)	.	.	.	.	.	.	.	.	.	.	.	.	.
!	!	!	!	!	!LO:SIC:o:v=powtórka oznaczona skrótem //	!	!	!	!	!	!	!	!	!	!	!	!	!
!	!	!	!	!	!	!	!	!	!LO:PB:g=original	!	!	!	!	!	!	!	!	!
*	*	*	*	*	*rep	*	*	*	*	*	*	*	*	*	*	*	*	*
8D\	.	.	8B-/ 8d/	.	(<16a-/LL	.	16B-\LL	sae-	16B-\LL	sae-	16b-\LL	sae-	16b-\LL	sae-	.	.	(<16b-\LL	(>16bb-\LL
!	!	!	!	!	!	!	!LO:SIC:s:v=powinno być a-	!	!	!	!	!	!	!	!	!	!	!
.	.	.	.	.	16b-\	.	16A\JJ	.	16A-\JJ	.	16a-\JJ	.	16a-\JJ	.	.	.	16a-/	16aa-\
8B-\J	.	.	8B-/J 8d/	.	16a-/	.	16G\LL	-clum	16GLL\	-clum	16g\LL	-clum	16g\LL	-clum	.	.	16g/	16gg\
.	.	.	.	.	16b-\JJ)	.	16F\JJ	.	16F/JJ	.	16f\JJ	.	16f/JJ	.	.	.	16f/JJ)	16ff\JJ)
*	*	*	*	*	*Xrep	*	*	*	*	*	*	*	*	*	*	*	*	*
!	!	!	!	!	!	!	!	!	!	!	!	!	!	!	!	!	!LO:PB:g=original	!LO:PB:g=original
8E-\L	.	.	8B-/L 8e-/	.	(<16g/LL	.	8.E-\	in	8E-/	in	8.e-\	in	8.e-/	in	.	.	8.e-/L	8.ee-\L
.	.	.	.	.	16b-\	.	.	.	.	.	.	.	.	.	.	.	.	.
8B-\	.	.	8B-/ 8e-/	.	16g/	.	.	.	8F/	fa-	.	.	.	.	.	.	.	.
.	.	.	.	.	16b-\JJ)	.	16F\	fa-	.	.	16f\	fa-	16f/	fa-	.	.	16f/Jk	16ff\Jk
!	!	!	!	!	!LO:SIC:o:v=powtórka oznaczona skrótem //	!	!	!	!	!	!	!	!	!	!	!	!	!
*	*	*	*	*	*rep	*	*	*	*	*	*	*	*	*	*	*	*	*
8E-\	.	.	8B-/ 8e-/	.	(<16g/LL	.	8G\	-vil-	8G/	-vil-	8g\	-vil-	8g/	-vil-	.	.	8g/L	8gg\L
.	.	.	.	.	16b-\	.	.	.	.	.	.	.	.	.	.	.	.	.
8E-\J	.	.	8B-/J 8e-/	.	16g/	.	8E-\	-la	8E-/	-la	8e-\	-la	8e-/	-la	.	.	8e-/J	8ee-\J
.	.	.	.	.	16b-\JJ)	.	.	.	.	.	.	.	.	.	.	.	.	.
*	*	*	*	*	*Xrep	*	*	*	*	*	*	*	*	*	*	*	*	*
=6	=6	=6	=6	=6	=6	=6	=6	=6	=6	=6	=6	=6	=6	=6	=6	=6	=6	=6
8E-\L	6 4	.	8a-/L	.	(>16cc\LL	.	8c\	sol-	8c\	sol-	8cc\	sol-	8cc\	sol-	.	.	2r	2r
.	.	.	.	.	16ee-\	.	.	.	.	.	.	.	.	.	.	.	.	.
8E-\	5 3	.	8g/	.	16b-\	.	8B-\	-vet	8B-\	-vet	8b-\	-vet	8b-\	-vet	.	.	.	.
.	.	.	.	.	16ee-\JJ)	.	.	.	.	.	.	.	.	.	.	.	.	.
!	!	!	!	!	!	!	!LO:SIC:s:v=powinno być a-	!	!	!	!	!	!	!	!	!	!	!
8D\	6 5	.	8f/	.	(>16a-/LL	.	8A\	sae-	8A-\	sae-	8a-\	sae-	8a-\	sae-	.	.	.	.
.	.	.	.	.	16ee-\	.	.	.	.	.	.	.	.	.	.	.	.	.
8E-\J	.	.	8e-/J	.	16g/	.	8G\	-clum	8G/	-clum	8g\	-clum	8g\	-clum	.	.	.	.
.	.	.	.	.	16ee-\JJ)	.	.	.	.	.	.	.	.	.	.	.	.	.
8A-\L	6	.	(<16d/LL	.	(<16f/LL	.	16F\LL	in	16F/LL	in	16f\LL	in	16f/LL	in	.	.	16dd\LL	16ff\LL
.	.	.	16c/	.	16e-/	.	16E-\JJ	.	16E-/JJ	.	16e-\JJ	.	16e-/JJ	.	.	.	16cc\	16ee-\
8An\J	5	.	16B-/	.	16d/	.	16D\LL	fa-	16D/LL	fa-	16d\LL	fa-	16d/LL	fa-	.	.	16b-\	16dd\
.	.	.	16c/JJ)	.	16e-/JJ)	.	16E-\JJ	.	16E-/JJ	.	16e-\JJ	.	16e-/JJ	.	.	.	16cc\JJ	16ee-\JJ
*	*	*	*Xtremolo	*	*	*	*	*	*	*	*	*	*	*	*	*	*	*
8B-L\	.	.	8B-/L 8d/	.	16f/LL	.	8F\	-vil-	8F/	-vil-	8f\	-vil-	8f/	-vil-	.	.	8dd\L	8ff\L
.	.	.	.	.	16g/J	.	.	.	.	.	.	.	.	.	.	.	.	.
!LO:TX:t=P:problem=mixed beam	!	!	!	!	!	!	!	!	!	!	!	!	!	!	!	!	!	!
8BB-J/	.	.	8B-/J 8d/	.	8f/J	.	8F\	-la	8F/	-la	8f\	-la	8f/	-la	.	.	8dd\J	8ff\J
=7	=7	=7	=7	=7	=7	=7	=7	=7	=7	=7	=7	=7	=7	=7	=7	=7	=7	=7
!	!	!	!	!	!	!	!	!	!	!	!LO:PB:g=original	!	!LO:PB:g=original	!	!	!	!	!
8E-\L	.	.	16e-/KL	.	(<16b-\LL	.	8E-\	tes-	8G/	tes-	8e-\	tes-	8b-\	tes-	1r	1r	8r	8r
.	.	.	8e-/	.	16g/	.	.	.	.	.	.	.	.	.	.	.	.	.
8E-\	.	.	.	.	16b-\	.	8e-\	-te	8G/	-te	8e-\	-te	8b-\	-te	.	.	4g/	4b-/
.	.	.	8e-/	.	16g/JJ)	.	.	.	.	.	.	.	.	.	.	.	.	.
!	!	!	!	!	!LO:SIC:o:v=powtórka oznaczona skrótem //	!	!	!	!	!	!	!	!	!	!	!	!	!
*	*	*	*	*	*rep	*	*	*	*	*	*	*	*	*	*	*	*	*
8D-X\	4 2	.	.	.	(<16b-\LL	.	8d-X\	Da-	8G/	Da-	8e-\	Da-	8b-\	Da-	.	.	.	.
.	.	.	8e-/	.	16g/	.	.	.	.	.	.	.	.	.	.	.	.	.
8D-\J	.	.	.	.	16b-\	.	8d-\	-vid	8G/	-vid	8e-\	-vid	8b-\	-vid	.	.	8g/	8b-/
.	.	.	16e-/Jk	.	16g/JJ)	.	.	.	.	.	.	.	.	.	.	.	.	.
*	*	*	*rep	*	*Xrep	*	*	*	*	*	*	*	*	*	*	*	*	*
!	!	!	!LO:SIC:o:v=powtórka oznaczona skrótem //	!	!	!	!	!	!	!	!	!	!	!	!	!	!	!
!	!	!	!	!	!LO:PB:g=original	!	!	!	!	!	!	!	!	!	!	!	!	!
8CL/	6	.	16e-/KL	.	(<16ccLL/	.	8c\	cum	8A-/	cum	8e-\	cum	8cc\	cum	.	.	8r	8r
.	.	.	8e-/	.	16a-/	.	.	.	.	.	.	.	.	.	.	.	.	.
8E-\J	.	.	.	.	16cc\	.	8E-\	Sy-	8A-/	Sy-	8e-\	Sy-	8cc\	Sy-	.	.	4a-/	4cc\
.	.	.	8e-/	.	16a-/JJ)	.	.	.	.	.	.	.	.	.	.	.	.	.
!	!	!	!	!	!LO:SIC:o:v=powtórka oznaczona skrótem //	!	!	!	!	!	!	!	!	!	!	!	!	!
!	!	!	!	!	!	!	!	!	!LO:PB:g=original	!	!	!	!	!	!	!	!	!
!	!	!	!	!	!	!	!LO:SIC:s:v=powinno być a-	!	!	!	!	!	!	!	!	!	!	!
*	*	*	*	*	*rep	*	*	*	*	*	*	*	*	*	*	*	*	*
8A-\L	_	.	.	.	(<16ccLL/	.	8A\	-bil-	8A-/	-bil-	8e-\	-bil-	8cc\	-bil-	.	.	.	.
.	.	.	8e-/	.	16a-/	.	.	.	.	.	.	.	.	.	.	.	.	.
8A-\J	.	.	.	.	16cc\	.	8A\	-la	8A-/	-la	8e-\	-la	8cc\	-la	.	.	8a-/	8cc\
.	.	.	16e-/Jk	.	16a-/JJ)	.	.	.	.	.	.	.	.	.	.	.	.	.
*	*	*	*Xrep	*	*Xrep	*	*	*	*	*	*	*	*	*	*	*	*	*
=8	=8	=8	=8	=8	=8	=8	=8	=8	=8	=8	=8	=8	=8	=8	=8	=8	=8	=8
!	!	!	!LO:PB:g=original	!	!	!	!	!	!	!	!	!	!	!	!	!	!	!
8F\L	7	.	16f/KL	.	(>16cc\LL	.	8F\	tes-	8An\	tes-	8f\	tes-	8cc\	tes-	2r	2r	8r	8r
.	.	.	8f/	.	16an/	.	.	.	.	.	.	.	.	.	.	.	.	.
8F\	.	.	.	.	16cc\	.	8F\	-te	8A\	-te	8f\	-te	8cc\	-te	.	.	8an/L	4cc\
.	.	.	8f/	.	16a/JJ)	.	.	.	.	.	.	.	.	.	.	.	.	.
!	!	!	!	!	!LO:SIC:o:v=powtórka oznaczona skrótem //	!	!	!	!	!	!	!	!	!	!	!	!	!
*	*	*	*	*	*rep	*	*	*	*	*	*	*	*	*	*	*	*	*
8E-\	7	.	.	.	(>16cc\LL	.	8E-\	Da-	8A\	Da-	8f\	Da-	8cc\	Da-	.	.	8a/	.
.	4 2	.	8f/	.	16a/	.	.	.	.	.	.	.	.	.	.	.	.	.
8E-\J	.	.	.	.	16cc\	.	8E-\	-vid	8A\	-vid	8f\	-vid	8cc\	-vid	.	.	8a/J	8cc\
.	.	.	16f/Jk	.	16a/JJ)	.	.	.	.	.	.	.	.	.	.	.	.	.
*	*	*	*	*	*Xrep	*	*	*	*	*	*	*	*	*	*	*	*	*
!	!	!	!	!	!	!	!	!	!	!	!	!	!LO:PB:g=original	!	!	!	!	!
!	!	!	!	!	!	!	!LO:PB:g=original	!	!	!	!	!	!	!	!	!	!	!
8D\L	6	.	16f/LL	.	(>16dd\LL	.	8D\	cum	8B-\	cum	8f\	cum	8dd\	cum	4r	4r	8r	8r
.	.	.	16d/	.	16b-\	.	.	.	.	.	.	.	.	.	.	.	.	.
8F\	.	.	16f/	.	16dd\	.	8F\	Sy-	8B-\	Sy-	8f\	Sy-	8dd\	Sy-	.	.	4b-\	4dd\
.	.	.	16d/JJ	.	16b-\JJ)	.	.	.	.	.	.	.	.	.	.	.	.	.
!	!	!	!	!	!LO:SIC:o:v=powtórka oznaczona skrótem //	!	!	!	!	!	!	!	!	!	!	!	!	!
*	*	*	*	*	*rep	*	*	*	*	*	*	*	*	*	*	*	*	*
8B-\	.	.	16f/LL	.	(>16dd\LL	.	8B-\	-bil-	8B-\	-bil-	8f\	-bil-	8dd\	-bil-	8r	8r	.	.
.	.	.	16d/	.	16b-\	.	.	.	.	.	.	.	.	.	.	.	.	.
8B-\J	.	.	16f/	.	16dd\	.	8BB-/	-la	8B-\	-la	8f\	-la	8dd\	-la	8b-\	8dd\	8b-\	8dd\
.	.	.	16d/JJ	.	16b-\JJ)	.	.	.	.	.	.	.	.	.	.	.	.	.
*	*	*	*	*	*Xrep	*	*	*	*	*	*	*	*	*	*	*	*	*
=9	=9	=9	=9	=9	=9	=9	=9	=9	=9	=9	=9	=9	=9	=9	=9	=9	=9	=9
*4\right	*	*	*	*	*	*	*	*	*	*	*4\right	*	*4\right	*	*	*4|right	*	*
!	!	!	!	!	!	!	!	!	!	!	!LO:PB:g=original	!	!LO:SIC:o:v=niejednoznaczny zapis łuku	!	!	!	!	!
4F\	7	.	8f/L 8an/	.	(>16cc\LL	.	4F\	cum	4An\	cum	4f\	cum	(>4cc\	cum	4f/	4cc\	4an/	4cc\
.	.	.	.	.	16ff\	.	.	.	.	.	.	.	.	.	.	.	.	.
.	.	.	8f/ 8a/	.	16cc\	.	.	.	.	.	.	.	.	.	.	.	.	.
.	.	.	.	.	16ff\JJ)	.	.	.	.	.	.	.	.	.	.	.	.	.
4B-\	.	.	8f/ 8b-/	.	(>16dd\LL	.	4B-\	Sy-	4B-\	Sy-	4f\	Sy-	4dd\)	Sy-	4b-\	4dd\	4b-/	4dd\
.	.	.	.	.	16ff\	.	.	.	.	.	.	.	.	.	.	.	.	.
.	.	.	8f/J 8b-/	.	16dd\	.	.	.	.	.	.	.	.	.	.	.	.	.
.	.	.	.	.	16ff\JJ)	.	.	.	.	.	.	.	.	.	.	.	.	.
*	*	*	*	*	*	*	*	*	*	*	*2\right	*	*2\right	*	*	*2\right	*	*2\right
!	!	!	!	!	!	!	!	!	!	!	!	!	!	!	!	!	!	!LO:SIC:o:v=kaudy półnut z lewej strony
4F\	.	.	8f/L 8a/	.	(>16cc\LL	.	2F\	-bil-	(>4B-\	-bil-	2f\	-bil-	2cc\T	-bil-	2f/T	2cc\T	4a/	2cc\
.	.	.	.	.	16ff\	.	.	.	.	.	.	.	.	.	.	.	.	.
.	.	.	8f/ 8a/	.	16cc\	.	.	.	.	.	.	.	.	.	.	.	.	.
.	.	.	.	.	16ff\JJ)	.	.	.	.	.	.	.	.	.	.	.	.	.
4FF/	.	.	8f/ 8a/	.	(>16ee-\LL	.	.	.	4A\)	.	.	.	.	.	.	.	4f/	.
.	.	.	.	.	16ff\	.	.	.	.	.	.	.	.	.	.	.	.	.
.	.	.	8f/J 8a/	.	16ee-\	.	.	.	.	.	.	.	.	.	.	.	.	.
.	.	.	.	.	16ff\JJ)	.	.	.	.	.	.	.	.	.	.	.	.	.
=10	=10	=10	=10	=10	=10	=10	=10	=10	=10	=10	=10	=10	=10	=10	=10	=10	=10	=10
!LO:PB:g=original	!	!	!	!	!LO:PB:g=original	!	!	!	!	!	!	!	!	!	!	!	!	!
4BB-/	.	.	4b-/	.	4dd\	.	4BB-/	-la	4B-\	-la	4f\	-la	4b-\	-la	4d/	4b-\	4d/	4b-\
8E-\L	5	.	8g/L	.	8b-\L	.	8E-/	cun-	8e-\	cun-	8g\	cun-	8b-\	cun-	4r	4r	4r	4r
8E-\J	.	.	8g/J	.	8b-\J	.	8E-/	-cta	8e-\	-cta	8g\	-cta	8b-\	-cta	.	.	.	.
!	!	!	!	!	!	!	!	!	!	!	!LO:SIC:s:v=powinno być a-	!	!	!	!	!	!	!
8E-\L	6 4-	.	8a-X/L	.	8cc\L	.	8E-/	stri-	8e-\	stri-	8a\	stri-	8cc\	stri-	2r	2r	2r	2r
8E-\	.	.	16a-/L	.	16cc\L	.	8E-/	-cte	8e-\	-cte	16a\LL	-cte	16cc\LL	-cte	.	.	.	.
.	.	.	16g/JJ	.	16b-\JJ	.	.	.	.	.	16g\JJ	.	16b-\JJ	.	.	.	.	.
8E-\	4 2	.	8f/L	.	8a-X/L	.	8E-/	dis-	8e-\	dis-	8f\	dis-	8a-\	dis-	.	.	.	.
8E-\J	.	.	16e-/L	.	16g/L	.	8E-/	-cus-	8e-\	-cus-	16e-\LL	-cus-	16g\LL	-cus-	.	.	.	.
!	!	!	!LO:TX:a:t=Volti Subito	!	!	!	!	!	!	!	!	!	!	!	!	!	!	!
.	.	.	16f/JJ	.	16a-/JJ	.	.	.	.	.	16f\JJ	.	16a-\JJ	.	.	.	.	.
=11	=11	=11	=11	=11	=11	=11	=11	=11	=11	=11	=11	=11	=11	=11	=11	=11	=11	=11
!	!	!	!LO:LB:g=original	!	!	!	!	!	!LO:PB:g=original	!	!	!	!LO:LB:g=original	!	!	!	!	!
!	!	!	!	!	!	!	!	!	!	!	!	!	!	!	!LO:TX:a:t=Pausen	!LO:TX:a:t=Paus	!	!
*tremolo	*	*	*	*	*	*	*	*	*	*	*	*	*	*	*	*	*	*
8E-\L	.	.	8g/L	.	8b-\L	.	8E-/	-su-	8e-\	-su-	8g\	-su-	8b-\	-su-	1r	1r	4r	4r
8E-\	.	.	8g/J	.	8b-\J	.	8E-/	-rus	8e-\	-rus	8g\	-rus	8b-\	-rus	.	.	.	.
!	!	!	!	!	!	!	!LO:LB:g=original	!	!	!	!	!	!	!	!	!	!	!
8E-\	.	.	8B-/L	.	(<16g/LL	.	8E-\	mors	8B-\	mors	8e-\	mors	8g\	mors	.	.	8ee-\L	8gg\L
.	.	.	.	.	16b-\	.	.	.	.	.	.	.	.	.	.	.	.	.
8E-\J	.	.	8B-/J	.	16g/	.	8E-\	stu-	8B-\	stu-	8e-\	stu-	8g\	stu-	.	.	8ee-\J	8gg\J
.	.	.	.	.	16b-\JJ)	.	.	.	.	.	.	.	.	.	.	.	.	.
!	!	!	!	!	!	!	!	!	!	!	!	!	!	!	!	!	!LO:PB:g=original	!
.	.	.	.	.	.	.	.	.	.	.	.	.	.	.	.	.	8qgg/	8qbb-/
!	!	!	!	!	!	!	!	!	!	!	!LO:LB:g=original	!	!	!	!LO:TX:t=13	!LO:TX:t=13	!	!
*Xtremolo	*	*	*tremolo	*	*	*	*	*	*	*	*	*	*	*	*	*	*	*
8B-\L	7	.	8B-/L	.	16b-\LL	.	8B-\	-pe-	8B-\	-pe-	8f\	-pe-	16b-\LL	-pe-	.	.	8ff\L	8aa-\L
.	.	.	.	.	16a-/J	.	.	.	.	.	.	.	16a-\JJ	.	.	.	.	.
8B-\	.	.	8B-/	.	8a-/J	.	8B-\	-bit	8B-\	-bit	8f\	-bit	8a-\	-bit	.	.	8ff\J	8aa-\J
.	.	.	.	.	.	.	.	.	.	.	.	.	8qqg/	.	.	.	.	8qgg/
8B-\	5	.	8B-/	.	8f/L	.	8B-\	et	8B-\	et	8d\	et	8f/	et	.	.	8b-\L	8ff\L
8B-\J	.	.	8B-/J	.	16e-/L	.	8B-\	na-	8B-\	na-	16cLL/	na-	16e-/LL	na-	.	.	8b-\J	16ee-\L
.	.	.	.	.	16f/JJ	.	.	.	.	.	16d\JJ	.	16f/JJ	.	.	.	.	16ff\JJ
=12	=12	=12	=12	=12	=12	=12	=12	=12	=12	=12	=12	=12	=12	=12	=12	=12	=12	=12
!	!	!	!	!	!	!	!	!	!	!	!	!	!	!	!	!	!	!LO:PB:g=original
*tremolo	*	*	*Xtremolo	*	*	*	*	*	*	*	*	*	*	*	*	*	*	*
8E-\L	.	.	8B-/L	.	8g/L	.	8E-\	-tu-	8B-\	-tu-	8e-\	-tu-	8g/	-tu-	1r	1r	8b-\L	8gg\L
8E-\	.	.	8B-/J	.	8g/J	.	8E-\	-ra	8B-\	-ra	8e-\	-ra	8g/	-ra	.	.	8b-\J	8gg\J
8E-\	.	.	8g/L	.	8b-L/	.	8E-\	ju-	8e-\	stri-	8g\	ju-	8b-\	ju-	.	.	8gg\L	8bb-\L
8E-\J	.	.	8g/J	.	8b-\J	.	8E-\	-di-	8e-\	-cte	8g\	-di-	8b-\	-di-	.	.	8gg\J	8bb-\J
4.E-\	.	.	8g/L	.	8b-\L	.	8E-\	-can-	8e-\	dis-	8g\	-can-	8b-\	-can-	.	.	8gg\L	8bb-\L
.	.	.	16e-/L	.	16g/L	.	8E-\	-ti	8e-\	-cus-	16e-\LL	-ti	16g\LL	-ti	.	.	16ee-\L	16gg\L
.	.	.	16f/JJ	.	16a-/JJ	.	.	.	.	.	16f\JJ	.	16a-\JJ	.	.	.	16ff\JJ	16aa-\JJ
.	.	.	8g/L	.	8b-\L	.	8E-\	res-	8e-\	-su-	8g\	res-	8b-\	res-	.	.	8gg\L	8bb-\L
!	!	!	!	!	!	!	!LO:SIC:s:v=powinno być a-	!	!	!	!	!	!	!	!	!	!	!
8A-\	.	.	16a-/L	.	16cc\L	.	8A\	-pon-	16e-\LL	-rus	16a-\LL	-pon-	16cc\LL	-pon-	.	.	16aa-\L	16ccc\L
.	.	.	16f/JJ	.	16a-/JJ	.	.	.	16c\JJ	.	16f\JJ	.	16a-\JJ	.	.	.	16gg\JJ	16aa-\JJ
=13	=13	=13	=13	=13	=13	=13	=13	=13	=13	=13	=13	=13	=13	=13	=13	=13	=13	=13
!	!	!	!	!	!LO:PB:g=original	!	!LO:PB:g=original	!	!	!	!	!	!LO:PB:g=original	!	!	!	!	!
*Xtremolo	*	*	*	*	*	*	*	*	*2\right	*	*	*	*	*	*	*	*	*
!	!	!	!	!	!	!	!	!	!LO:SIC:o:v=kaudy półnut z lewej strony	!	!	!	!	!	!	!	!	!
8B-L\	.	.	8B-/L 8e-/	.	(<16g/LL	.	(>4B-\	-su-	2B-\	ju-	(>4e-\	-su-	(<4g/	-su-	1r	1r	8ee-\L	4gg\
.	.	.	.	.	16b-\	.	.	.	.	.	.	.	.	.	.	.	.	.
8B-\	.	.	8B-/ 8e-/	.	16g/	.	.	.	.	.	.	.	.	.	.	.	8b-\J	.
.	.	.	.	.	16b-\JJ)	.	.	.	.	.	.	.	.	.	.	.	.	.
!LO:TX:t=P:problem=mixed beam	!	!	!	!	!	!	!	!	!	!	!	!	!	!	!	!	!	!
8BB-/	.	.	8B-/ 8d/	.	(<16f/LL	.	4BB-/)	.	.	.	4d\)	.	4f/)	.	.	.	8a-/L	4ff\
.	.	.	.	.	16b-\	.	.	.	.	.	.	.	.	.	.	.	.	.
8BB-J/	.	.	8B-/J 8d/	.	16f/	.	.	.	.	.	.	.	.	.	.	.	8b-\J	.
.	.	.	.	.	16b-\JJ)	.	.	.	.	.	.	.	.	.	.	.	.	.
!	!	!	!	!	!	!	!	!	!	!	!LO:PB:g=original	!	!	!	!	!	!	!
8E-\L	.	.	8G/L 8e-/	.	16e-/LL	.	4E-\	-ra	4B-\	-di-	4e-\	-ra	4e-/	-ra	.	.	4g/	4ee-\
.	.	.	.	.	16g/	.	.	.	.	.	.	.	.	.	.	.	.	.
8B-\	.	.	8G/J 8e-/	.	16b-\	.	.	.	.	.	.	.	.	.	.	.	.	.
.	.	.	.	.	16ee-\JJ	.	.	.	.	.	.	.	.	.	.	.	.	.
8G\	.	.	16g/LL	.	16b-\LL	.	8E-\	ju-	8e-\	-can-	8g\	ju-	8b-\	ju-	.	.	4r	4r
.	.	.	16e-/	.	16g/	.	.	.	.	.	.	.	.	.	.	.	.	.
8E-\J	.	.	16g/	.	16b-\	.	8E-\	-di-	8e-\	-ti	8g\	-di-	8b-\	-di-	.	.	.	.
.	.	.	16e-/JJ	.	16g/JJ	.	.	.	.	.	.	.	.	.	.	.	.	.
=14	=14	=14	=14	=14	=14	=14	=14	=14	=14	=14	=14	=14	=14	=14	=14	=14	=14	=14
!	!	!	!LO:PB:g=original	!	!	!	!	!	!LO:PB:g=original	!	!	!	!	!	!	!	!	!
8E-\L	.	.	8g/L	.	8b-L\	.	8E-\	-can-	8e-\	res-	8g\	-can-	8b-\	-can-	1r	1r	2r	2r
8E-\	.	.	16e-/L	.	16g/L	.	8E-\	-ti	8e-\	-pon-	16e-\LL	-ti	16g\LL	-ti	.	.	.	.
.	.	.	16f/JJ	.	16a-/JJ	.	.	.	.	.	16f\JJ	.	16a-\JJ	.	.	.	.	.
8E-\	.	.	8g/L	.	8b-\L	.	8E-\	res-	8e-\	-su-	8g\	res-	8b-\	res-	.	.	.	.
!	!	!	!	!	!	!	!LO:SIC:s:v=powinno być a-	!	!	!	!LO:SIC:s:v=powinno być a-	!	!	!	!	!	!	!
8A-\J	.	.	16a-/L	.	16cc\L	.	8A\	-pon-	8e-\	-ra	16a\LL	-pon-	16cc\LL	-pon-	.	.	.	.
.	.	.	16f/JJ	.	16a-/JJ	.	.	.	.	.	16f\JJ	.	16a-\JJ	.	.	.	.	.
8B-L\	6 4	.	8e-/L	.	(<16gLL/	.	(>4B-\	-su-	2B-\	ju-	(>4e-\	-su-	4g/	-su-	.	.	4b-/	4gg\
.	.	.	.	.	16b-\	.	.	.	.	.	.	.	.	.	.	.	.	.
8B-\	.	.	16g/L	.	16ee-\	.	.	.	.	.	.	.	.	.	.	.	.	.
.	.	.	16b-\JJ	.	16gg\JJ	.	.	.	.	.	.	.	.	.	.	.	.	.
!LO:TX:t=P:problem=mixed beam	!	!	!	!	!	!	!	!	!	!	!	!	!	!	!	!	!	!
8BB-/	5 3	.	(<16b-\LL	.	(>16gg\LL)	.	4BB-/)	.	.	.	4d\)	.	16g\LL	.	.	.	(<16b-\LL	(>16gg\LL
.	.	.	16a-/	.	16ff\	.	.	.	.	.	.	.	16f/	.	.	.	16a-/	16ff\
8BB-J/	.	.	16g/	.	16ee-\	.	.	.	.	.	.	.	16e-/	.	.	.	16g/	16ee-\
.	.	.	16a-/JJ)	.	16ff\JJ)	.	.	.	.	.	.	.	16f/JJ	.	.	.	16a-/JJ)	16ff\JJ)
=15	=15	=15	=15	=15	=15	=15	=15	=15	=15	=15	=15	=15	=15	=15	=15	=15	=15	=15
!LO:PB:g=original	!	!	!	!	!	!	!	!	!	!	!	!	!	!	!	!	!	!
8E-\L	.	.	4g/	.	4ee-\	.	2E-\	-ra	2B-\	-di-	(>4e-\	-ra	4e-/	-ra	1r	1r	4g/	4ee-\
8B-\	.	.	.	.	.	.	.	.	.	.	.	.	.	.	.	.	.	.
8G\	.	.	8ee-\L	.	8gg\L	.	.	.	.	.	4g\)	.	4r	.	.	.	4r	4r
8B-\J	.	.	8ee-\J	.	16bb-\L	.	.	.	.	.	.	.	.	.	.	.	.	.
.	.	.	.	.	16gg\JJ	.	.	.	.	.	.	.	.	.	.	.	.	.
8E-\L	.	.	8g/L	.	8ee-\L	.	8E-\	qua-	8B-\	-can-	8g\	qua-	8ee-\	qua-	.	.	4g/	4ee-\
8E-\	.	.	8g/	.	8ee-\	.	8E-\	-re	8B-\	-ti	8g\	-re	8ee-\	-re	.	.	.	.
!	!	!	!	!	!	!	!	!	!	!	!LO:SIC:s:v=powinno być a-	!	!	!	!	!	!	!
8F\	6	.	8a-/	.	8dd\	.	8F\	sur-	8A-/	res-	8a\	sur-	8dd\	sur-	.	.	4a-/	4dd\
8F\J	.	.	8a-/J	.	8dd\J	.	8F\	-get	8A-/	-pon-	8a\	-get	8dd\	-get	.	.	.	.
=16	=16	=16	=16	=16	=16	=16	=16	=16	=16	=16	=16	=16	=16	=16	=16	=16	=16	=16
!	!	!	!	!	!LO:PB:g=original	!	!	!	!	!	!LO:PB:g=original	!	!LO:PB:g=original	!	!	!	!	!
*	*	*	*tremolo	*	*	*	*	*	*	*	*	*	*	*	*	*	*	*
8G\L	5- 6	.	8e-/L	.	8dd-X\L	.	8G\	in	8G/	-su-	8b-\	ex	8dd-X\	ex	1r	1r	4b-/	4dd-X\
8E-\	.	.	8e-/	.	8dd-\	.	8E-\	fa-	8G/	-ra	8b-\	fa-	8dd-\	fa-	.	.	.	.
!	!	!	!	!	!	!	!	!	!	!	!	!	!LO:SIC:o:v=niejednoznaczny zapis wysokości przednutki	!	!	!	!	!
.	.	.	.	.	8qqdd-/	.	.	.	.	.	.	.	8qqcc/	.	.	.	.	.
!	!	!	!	!	!	!	!LO:PB:g=original	!	!	!	!	!	!	!	!	!	!	!
!	!	!	!	!	!	!	!LO:SIC:s:v=powinno być a-	!	!	!	!LO:SIC:s:v=powino być a-	!	!	!	!	!	!	!
8A-\	.	.	8e-/	.	8cc\	.	8A\	-vil-	8E-/	ju-	8a\	-vil-	8cc\	-vil-	.	.	4a-/	4cc\
8A-\J	.	.	8e-/J	.	8cc\J	.	8A\	-la	8E-/	-di-	8a\	-la	8cc\	-la	.	.	.	.
8A-\L	.	.	8e-/L	.	(>16ccLL\	.	8A\	ju-	8e-\	-can-	8a\	ju-	8cc\	ju-	.	.	2r	2r
.	.	.	.	.	16e-/	.	.	.	.	.	.	.	.	.	.	.	.	.
8e-\	.	.	8e-/	.	16a-/	.	8c\	-di	8e-\	-ti	8a\	-di	8cc\	-di	.	.	.	.
.	.	.	.	.	16cc\JJ)	.	.	.	.	.	.	.	.	.	.	.	.	.
8c\	.	.	8e-/	.	(>16cc\LL	.	8e-\	can-	8e-\	res-	8a\	can-	8cc\	can-	.	.	.	.
.	.	.	.	.	16a-/	.	.	.	.	.	.	.	.	.	.	.	.	.
8A-\J	.	.	8e-/J	.	16cc\	.	8A\	-dus	8e-\	-pon-	8a-\	-dus	8cc\	-dus	.	.	.	.
.	.	.	.	.	16ee-\JJ)	.	.	.	.	.	.	.	.	.	.	.	.	.
=17	=17	=17	=17	=17	=17	=17	=17	=17	=17	=17	=17	=17	=17	=17	=17	=17	=17	=17
!	!	!	!	!	!	!	!	!	!LO:PB:g=original	!	!	!	!	!	!	!	!	!
8G\L	6 5-	.	8e-/L	.	(>16dd-X\LL	.	4E-\	ho-	4G/	-su-	4b-\	ho-	4dd-X\	ho-	1r	1r	1r	1r
.	.	.	.	.	16ee-\	.	.	.	.	.	.	.	.	.	.	.	.	.
8E-\J	.	.	8e-/	.	16b-\	.	.	.	.	.	.	.	.	.	.	.	.	.
.	.	.	.	.	16dd-\JJ)	.	.	.	.	.	.	.	.	.	.	.	.	.
!	!	!	!	!	!	!	!	!	!	!	!LO:SIC:s:v=powinno być a-	!	!	!	!	!	!	!
8A-L\	.	.	8e-/	.	(>16ccLL\	.	4A\	-mo	4E-/	-ra	4a\	-mo	4cc\	-mo	.	.	.	.
.	.	.	.	.	16e-/	.	.	.	.	.	.	.	.	.	.	.	.	.
!LO:TX:t=P:problem=mixed beam	!	!	!	!	!	!	!	!	!	!	!	!	!	!	!	!	!	!
8CJ/	.	.	8e-/J	.	16a-/	.	.	.	.	.	.	.	.	.	.	.	.	.
.	.	.	.	.	16cc\JJ)	.	.	.	.	.	.	.	.	.	.	.	.	.
8D-XL/	6 5	.	8e-/L 8b-/	.	(>16b-LL\	.	(>4d-X\	re-	4r	.	(>4a\	re-	2b-\	re-	.	.	.	.
.	.	.	.	.	16a-/	.	.	.	.	.	.	.	.	.	.	.	.	.
8D-\	.	.	8e-/ 8b-/	.	16g/	.	.	.	.	.	.	.	.	.	.	.	.	.
.	.	.	.	.	16a-/JJ)	.	.	.	.	.	.	.	.	.	.	.	.	.
8E-\	.	.	8e-/ 8b-/	.	(>16b-\LL	.	4e-\)	.	4e-\	re-	4g\)	.	.	.	.	.	.	.
.	.	.	.	.	16cc\	.	.	.	.	.	.	.	.	.	.	.	.	.
8E-\J	.	.	8e-/J 8b-/	.	16dd-X\	.	.	.	.	.	.	.	.	.	.	.	.	.
.	.	.	.	.	16ee-\JJ)	.	.	.	.	.	.	.	.	.	.	.	.	.
=18	=18	=18	=18	=18	=18	=18	=18	=18	=18	=18	=18	=18	=18	=18	=18	=18	=18	=18
!	!	!	!	!	!	!	!LO:SIC:s:v=powinno być a-	!	!	!	!LO:SIC:s:v=powinno być a-	!	!	!	!	!	!	!
*tremolo	*	*	*	*	*	*	*	*	*	*	*	*	*	*	*	*	*	*
8A-\L	.	.	8e-/L	.	4cc\	.	4A\	-us	4e-\	-us	4a\	-us	4cc\	-us	1r	1r	2r	2r
8A-\	.	.	8e-/	.	.	.	.	.	.	.	.	.	.	.	.	.	.	.
8A-\	.	.	8e-/	.	(>16ccLL\	.	8A\	hu-	8e-\	hu-	8a\	hu-	8cc\	hu-	.	.	.	.
.	.	.	.	.	16e-/	.	.	.	.	.	.	.	.	.	.	.	.	.
8A-\J	.	.	8e-/J	.	16a-/	.	8A\	-ic	8e-\	-ic	8a\	-ic	8cc\	-ic	.	.	.	.
.	.	.	.	.	16cc\JJ)	.	.	.	.	.	.	.	.	.	.	.	.	.
!	!	!	!	!	!	!	!	!	!	!	!	!	!	!	!	!	!LO:PB:g=original	!
*Xtremolo	*	*	*	*	*	*	*	*	*	*	*	*	*	*	*	*	*	*
8E-\L	.	.	8e-/L	.	16ccLL/	.	8E-\	er-	8e-\	er-	8g\	er-	8b-\	er-	.	.	8gg\L	8bb-\L
.	.	.	.	.	16b-\J	.	.	.	.	.	.	.	.	.	.	.	.	.
8E-\	.	.	8e-/	.	8b-\J	.	8E-\	-go	8e-\	-go	8g\	-go	8b-\	-go	.	.	8gg\J	8bb-\J
!	!	!	!	!	!	!	!	!	!	!	!LO:PB:g=original	!	!LO:PB:g=original	!	!	!	!	!
8D\	6 5	.	8B-/ 8f/	.	(<16a-/LL	.	8D/	par-	8B-\	par-	(>16f\LL	par-	16a-\LL	par-	.	.	16ff\LL	16aa-\LL
.	.	.	.	.	16g/	.	.	.	.	.	16e-\JJ)	.	16g\JJ	.	.	.	16ee-\	16gg\
8D\J	.	.	8B-/J 8f/	.	16a-/	.	8D/	-ce	8B-\	-ce	(>16f\LL	-ce	16a-\LL	-ce	.	.	16ff\	16aa-\
.	.	.	.	.	16b-\JJ)	.	.	.	.	.	16g\JJ)	.	16b-\JJ	.	.	.	16gg\JJ	16bb-\JJ
=19	=19	=19	=19	=19	=19	=19	=19	=19	=19	=19	=19	=19	=19	=19	=19	=19	=19	=19
!	!	!	!	!	!LO:PB:g=original	!	!LO:PB:g=original	!	!	!	!	!	!	!	!	!	!	!
*tremolo	*	*	*	*	*	*	*	*	*	*	*	*	*	*	*	*	*	*
8E-\L	.	.	16f/LL	.	16a-/LL	.	8E-\	De-	8B-\	De-	(>16f\LL	De-	16a-\LL	De-	1r	1r	16ff\LL	16aa-\LL
.	.	.	16e-/J	.	16g/J	.	.	.	.	.	16e-\JJ)	.	16g\JJ	.	.	.	16ee-\J	16gg\J
8E-\	.	.	8e-/J	.	8g/J	.	8E-\	-us	8B-\	-us	8e-\	-us	8g/	-us	.	.	8ee-\J	8gg\J
*	*	*	*Xtremolo	*	*	*	*	*	*	*	*	*	*	*	*	*	*	*
8E-\	.	.	8e-/L	.	8b-L/	.	8e-\	pi-	8e-\	Pi-	8g\	pi-	8b-\	pi-	.	.	4r	4r
8E-\J	.	.	8e-/J	.	8b-\J	.	8e-\	-e	8e-\	-e	8g\	-e	8b-\	-e	.	.	.	.
!	!	!	!	!	!	!	!	!	!	!	!LO:SIC:s:v=powinno być a-	!	!	!	!	!	!LO:PB:g=original	!
*Xtremolo	*	*	*tremolo	*	*	*	*	*	*	*	*	*	*	*	*	*	*	*
8E-\L	6 4	.	8e-/L	.	4cc\	.	4e-\	Je-	4e-\	Je-	4a\	Je-	4cc\	Je-	.	.	2r	2r
8E-\	.	.	8e-/	.	.	.	.	.	.	.	.	.	.	.	.	.	.	.
8E-\	5 3	.	8e-/	.	4b-\	.	4E-\	-su	4e-\	-su	4g\	-su	4b-\	-su	.	.	.	.
8E-\J	.	.	8e-/J	.	.	.	.	.	.	.	.	.	.	.	.	.	.	.
=20	=20	=20	=20	=20	=20	=20	=20	=20	=20	=20	=20	=20	=20	=20	=20	=20	=20	=20
!LO:LB:g=original	!	!	!LO:SIC:o:v=łuk dopisany ołówkiem	!	!	!	!	!	!	!	!	!	!	!	!	!	!	!
8F\L	7	.	16f/LL	.	(<16a-/LL	.	(>4F\	Do-	4A-\	Do-	4f\	Do-	4ee-\	Do-	1r	1r	0r	0r
.	.	.	16e-/	.	16g/	.	.	.	.	.	.	.	.	.	.	.	.	.
8F\	.	.	16d/	.	16f/	.	.	.	.	.	.	.	.	.	.	.	.	.
.	.	.	16e-/JJ	.	16g/JJ)	.	.	.	.	.	.	.	.	.	.	.	.	.
*	*	*	*Xtremolo	*	*	*	*	*	*	*	*	*	*	*	*	*	*	*
8B-\	7	.	8B-/L 8f/	.	(<16a-/LL	.	8B-\)	.	4A-\	-mi-	4f\	-mi-	4dd\	-mi-	.	.	.	.
.	.	.	.	.	16g/	.	.	.	.	.	.	.	.	.	.	.	.	.
8B-\J	.	.	8B-/J 8f/	.	16a-/	.	8B-\	-mi-	.	.	.	.	.	.	.	.	.	.
.	.	.	.	.	16b-\JJ)	.	.	.	.	.	.	.	.	.	.	.	.	.
!	!	!	!	!	!	!	!	!	!LO:LB:g=original	!	!	!	!	!	!	!	!	!LO:TX:t=2
*	*	*	*tremolo	*	*	*	*	*	*	*	*	*	*	*	*	*	*	*
8E-\L	.	.	8g/L	.	(>16g/LL	.	2E-\	-ne	2B-\	-ne	2g\	-ne	2ee-\	-ne	.	.	.	.
.	.	.	.	.	16b-\	.	.	.	.	.	.	.	.	.	.	.	.	.
8B-\	.	.	8g/	.	16ee-\	.	.	.	.	.	.	.	.	.	.	.	.	.
.	.	.	.	.	16gg\JJ)	.	.	.	.	.	.	.	.	.	.	.	.	.
8G\	.	.	8g/	.	(>16bb-\LL	.	.	.	.	.	.	.	.	.	.	.	.	.
.	.	.	.	.	16gg\	.	.	.	.	.	.	.	.	.	.	.	.	.
8E-\J	.	.	8g/J	.	16ee-\	.	.	.	.	.	.	.	.	.	.	.	.	.
.	.	.	.	.	16b-\JJ)	.	.	.	.	.	.	.	.	.	.	.	.	.
=21	=21	=21	=21	=21	=21	=21	=21	=21	=21	=21	=21	=21	=21	=21	=21	=21	=21	=21
8E-\L	7-	.	16e-/LL	.	(>16dd-X\LL	.	4E-\	Do-	4G/	Do-	4b-\	Do-	4dd-X\	Do-	1r	1r	.	.
.	.	.	16e-/	.	16cc\	.	.	.	.	.	.	.	.	.	.	.	.	.
8G\	.	.	16e-/	.	16b-\	.	.	.	.	.	.	.	.	.	.	.	.	.
.	.	.	16e-/JJ	.	16cc\JJ)	.	.	.	.	.	.	.	.	.	.	.	.	.
8B-\	.	.	16e-/LL	.	(>16dd-\LL	.	4E-\	-na	4G/	-na	4b-\	-na	4dd-\	-na	.	.	.	.
.	.	.	16e-/	.	16cc\	.	.	.	.	.	.	.	.	.	.	.	.	.
8E-\J	.	.	16e-/	.	16dd-\	.	.	.	.	.	.	.	.	.	.	.	.	.
.	.	.	16e-/JJ	.	16b-\JJ)	.	.	.	.	.	.	.	.	.	.	.	.	.
!	!	!	!	!	!	!	!	!	!	!	!LO:PB:g=original	!	!	!	!	!	!	!
!	!	!	!	!	!	!	!LO:SIC:s:v=powinno być a-	!	!	!	!LO:SIC:s:v=powinno być a-	!	!	!	!	!	!	!
*tremolo	*	*	*	*	*	*	*	*	*	*	*	*	*	*	*	*	*	*
8A-\L	.	.	16e-/LL	.	(>16cc\LL	.	4A\	e-	4E-/	e-	4a\	e-	4cc\	e-	.	.	.	.
.	.	.	16e-/	.	16ee-\	.	.	.	.	.	.	.	.	.	.	.	.	.
8A-\	.	.	16e-/	.	16ddn\	.	.	.	.	.	.	.	.	.	.	.	.	.
.	.	.	16e-/JJ	.	16cc\JJ)	.	.	.	.	.	.	.	.	.	.	.	.	.
8A-\	.	.	16e-/LL	.	(>16b-\LL	.	4A\	-is	4E-/	-is	8g\L	-is	8b-\L	-is	.	.	.	.
.	.	.	16e-/	.	16cc\	.	.	.	.	.	.	.	.	.	.	.	.	.
8A-\J	.	.	16e-/	.	16b-\	.	.	.	.	.	8f\J	.	8a-\J	.	.	.	.	.
.	.	.	16e-/JJ	.	16a-/JJ)	.	.	.	.	.	.	.	.	.	.	.	.	.
=22	=22	=22	=22	=22	=22	=22	=22	=22	=22	=22	=22	=22	=22	=22	=22	=22	=22	=22
!	!	!	!	!	!LO:PB:g=original	!	!	!	!	!	!	!	!LO:PB:g=original	!	!	!	!	!
*Xtremolo	*	*	*	*	*	*	*	*	*4\right	*	*	*	*	*	*	*	*	*
!	!	!	!	!	!	!	!	!	!LO:SIC:o:v=kaudy w dół z lewej strony	!	!	!	!	!	!	!	!	!
8B-\L	6 4	.	16B-/LL 16e-/	.	(<16g/LL	.	4.B-\	Re-	4.B-\	Re-	4e-\	Re-	4g/	Re-	1r	1r	4b-/	(>4gg\
.	.	.	16B-/ 16e-/	.	16f/	.	.	.	.	.	.	.	.	.	.	.	.	.
8B-\	.	.	16B-/ 16e-/	.	16g/	.	.	.	.	.	.	.	.	.	.	.	.	.
.	.	.	16B-/JJ 16e-/	.	16a-/JJ)	.	.	.	.	.	.	.	.	.	.	.	.	.
!	!	!	!	!	!	!	!	!	!	!	!LO:SIC:o:v=niejednoznaczny zapis łuku	!	!	!	!	!	!	!
8B-\	5 3	.	16B-/LL 16d/	.	(<16b-\LL	.	.	.	.	.	(>16g\LL	.	16b-\LL	.	.	.	4a-/	4ff\)
.	.	.	16B-/ 16d/	.	16a-/	.	.	.	.	.	16f\JJ)	.	16a-\JJ	.	.	.	.	.
*	*	*	*	*	*	*	*	*	*8\right	*	*	*	*	*	*	*	*	*
8B-\J	.	.	16B-/ 16d/	.	16g/	.	8B-\	-qui-	8B-\	-qui-	(>16e-\LL	-qui-	16g\LL	-qui-	.	.	.	.
.	.	.	16B-/JJ 16d/	.	16f/JJ)	.	.	.	.	.	16f\JJ)	.	16f/JJ	.	.	.	.	.
!	!	!	!	!	!	!	!	!	!	!	!LO:N:vis=8	!	!	!	!	!	!	!
*	*	*	*Xtremolo	*	*	*	*	*	*	*	*	*	*	*	*	*	*	*
8E-\L	.	.	8B-/L 8g/	.	(<16e-/LL	.	4E-\	-em	4G/	-em	4e-\	-em	4e-/	-em	.	.	4g/	4ee-\
.	.	.	.	.	16g/	.	.	.	.	.	.	.	.	.	.	.	.	.
8E-\	.	.	8B-/ 8g/	.	16b-\	.	.	.	.	.	.	.	.	.	.	.	.	.
.	.	.	.	.	16ee-\JJ)	.	.	.	.	.	.	.	.	.	.	.	.	.
8B-\	.	.	8B-/ 8f/	.	(>16dd\LL	.	8B-\	A-	8A-/	A-	8f\	A-	8dd#\	A-	.	.	8f/L	8dd\L
.	.	.	.	.	16cc\	.	.	.	.	.	.	.	.	.	.	.	.	.
8B-\J	.	.	8B-/J 8f/	.	16dd\	.	8B-\	-men	8A-/	-men	8f\	-men	8dd#\	-men	.	.	8f/J	8dd\J
.	.	.	.	.	16b-\JJ)	.	.	.	.	.	.	.	.	.	.	.	.	.
=23	=23	=23	=23	=23	=23	=23	=23	=23	=23	=23	=23	=23	=23	=23	=23	=23	=23	=23
!	!	!	!LO:PB:g=original	!	!	!	!LO:PB:g=original	!	!	!	!	!	!	!	!	!	!	!
8E-\L	.	.	8B-/L 8g/	.	8ee-\L	.	8E-\	a-	8B-\	A-	8g\	A-	8ee-\	A-	1r	1r	8g/L	8ee-\L
8E-\;J	.	.	8B-/J 8g/	.	8ee-\J	.	8E-\	-men.	8B-\	-men.	8g\	-men.	8ee-\	-men.	.	.	8g/J	8ee-\J
4r	.	.	4r	.	4r	.	4r	.	4r	.	4r	.	4r	.	.	.	4r	4r
2r	.	.	2r	.	2r	.	2r	.	2r	.	2r	.	2r	.	.	.	2r	2r
==	==	==	==	==	==	==	==	==	==	==	==	==	==	==	==	==	==	==
*-	*-	*-	*-	*-	*-	*-	*-	*-	*-	*-	*-	*-	*-	*-	*-	*-	*-	*-
!!!system-decoration: [(s1,s2)][(s3,s4)][(s5,s6,s7,s8)][(s9,s10)][(s11)]
!!!RDF**kern: > = above
!!!RDF**kern: < = below
!!!ENC: Andrzej Kubiczek
!!!END: 2020-02-18
